X:1
T:Tres morillas m' enamoran
T:Tres morillas m' enamoran
T:Anonyme
C:Anonyme
%%score [ 1 2 3 ]
L:1/8
Q:1/4=240
M:2/2
K:C
V:1 treble nm="Alto"
V:2 treble-8 nm="Tenor"
V:3 bass nm="Contra"
V:1
 E4 A4 | G4 E4 | C4 D4 | E4 D4 | C4 B,4 | A,8 | A,4 B,4 | C4 D2 E2- | E4 D4 | E8!fine! |: E4 A4 | %11
w: Tres mo-|ri- llas|m'e- na-|mo- ran|en Ja-|én,|A- xay|Fá- ti- may|* Ma-|rién.|Tres mo-|
w: Y ha-|llá- ban-|las co-|gi- das|en Ja-|én,|||||i- ban|
 G4 E4 | C4 D4 | E4 F4 | E8!D.C.! :| %15
w: ri- llas|tan gar-|ri- *|das,|
w: a co-|ger o-|li- *|vas,|
V:2
 e4 c4 | B4 c4 | e4 B4 | c4 B4 | A4 ^G4 | A8 | c4 G4 | A4 F2 G2- | G2 E2 F4 | E8 |: e4 d2 c2 | %11
w: Tres mo-|ri- llas|m'e- na-|mo- ran|en Ja-|én,|A- xay|Fá- ti- ma|* y Ma-|rién.|Tres mo- *|
w: Y ha-|llá- ban-|las co-|gi- das|en Ja-|én,|||||i- ban *|
 B4 c4 | e4 B3 A | B2 c4 B2 | c8 :| %15
w: ri- llas|tan gar- *|ri- * *|das,|
w: a co-|ger o- *|li- * *|vas,|
V:3
 E,4 F,4 | G,4 A,4 | A,4 G,4 | C,4 G,4 | A,4 E,4 | A,,8 | F,4 E,4 | A,,4 D,2 C,2- | C,2 G,2 A,4 | %9
w: Tres mo-|ri- llas|m'e- na-|mo- ran|en Ja-|én,|A- xay|Fá- ti- ma|* y Ma-|
w: Y ha-|llá- ban-|las co-|gi- das|en Ja-|én,||||
 B,8 |: E,4 F,4 | G,4 A,4 | A,4 G,4 | E,4 D,4 | C,8 :| %15
w: rién.|Tres mo-|ri- llas|tan gar-|ri- *|das,|
w: |i- ban|a co-|ger *|o- li-|vas,|

